X:1
T:Boyle O'Reilly's -- Reel
R:reel
B:Ryan's Mammoth Collection
N:253
Z:Contributed by Ray Davies,  ray:davies99.freeserve.co.uk
M:2/4
L:1/16
K:Em
u(dc)|\
.B.c(AB) u.G2u.B2 | ADFD ADFD | BcAB .G2.B2 | BGAF (BE).E2 |
BcAB .G2.B2 | ADFD ADFD | EGFA GBeg | fgaf g2z2 :|
v.g.e.B.e .g.e.b.e | fdBF ADFD | geBe gebe | fgaf (ge).e2 |
geBe gebe | fdAF (FD).D2 | EGFA GBAg | fgaf g2 z2 :|
